release/img/silent.svg

<svg width="14" height="15" viewBox="0 0 14 15" fill="none" xmlns="http://www.w3.org/2000/svg">
<path d="M4.00909 3.1777L1.19496 0.122365L0.20511 1.19705L12.8057 14.8776L13.7956 13.8029L12.3815 12.2677C13.4309 10.9411 14.0054 9.2487 14 7.5C14 4.39071 12.2695 1.83548 9.80046 0.659708V2.17977C11.4714 3.23318 12.5999 5.25562 12.5999 7.5C12.5963 8.85026 12.1854 10.1621 11.4301 11.2348L10.5299 10.2574C10.9513 9.42744 11.2005 8.40444 11.2005 7.5C11.2005 6.15398 10.658 4.53587 9.80046 3.69984V9.46544L8.4004 7.94538V0L4.00909 3.1777ZM1.40007 11.3002H3.28806L8.4004 15V12.1522L0.771436 3.86933C0.540348 3.99491 0.345886 4.18765 0.20969 4.42609C0.0734937 4.66454 0.000904634 4.93933 0 5.2199V9.7801C0 10.6184 0.62793 11.3002 1.40007 11.3002Z" fill="white"/>
</svg>

<svg xmlns="http://www.w3.org/2000/svg" width="14" height="15" fill="none" viewBox="0 0 14 15">
  <path fill="#fff" d="M4.01 3.178 1.194.122l-.99 1.075 12.6 13.68.99-1.074-1.413-1.535C13.43 10.94 14.005 9.248 14 7.5c0-3.11-1.73-5.665-4.2-6.84v1.52c1.671 1.053 2.8 3.076 2.8 5.32a6.53 6.53 0 0 1-1.17 3.735l-.9-.978A6.37 6.37 0 0 0 11.2 7.5c0-1.346-.542-2.964-1.4-3.8v5.765l-1.4-1.52V0L4.01 3.178ZM1.4 11.3h1.888L8.4 15v-2.848L.771 3.87a1.446 1.446 0 0 0-.561.557A1.614 1.614 0 0 0 0 5.22v4.56c0 .838.628 1.52 1.4 1.52Z"/>
</svg>
